symbols/web/playlist_add/materialsymbolsoutlined/playlist_add_wght500grad200_24px.svg

<svg xmlns="http://www.w3.org/2000/svg" height="24" width="24"><path d="M2.35 16.725V13.9h8.1v2.825Zm0-4.575V9.325H14.4v2.825Zm0-4.6V4.725H14.4V7.55ZM16.1 20.725v-4h-3.95V13.9h3.95V9.95h2.825v3.95H22.9v2.825h-3.975v4Z"/></svg>

<svg xmlns="http://www.w3.org/2000/svg" height="24" width="24"><path d="M16.1 20.725V16.725H12.15V13.9H16.1V9.95H18.925V13.9H22.9V16.725H18.925V20.725ZM2.35 16.725V13.9H10.45V16.725ZM2.35 12.15V9.325H14.4V12.15ZM2.35 7.55V4.725H14.4V7.55Z"/></svg>
